X:46
T:Hill on The Road, The
T:High Part of the Road, The
S:Trad, arr. Paddy O'Brien
Z:Set: Hill on the Road/Contentment is Wealth/Tell Her I Am
R:jig
E:12
I:speed 350
M:6/8
K:G
A|BAB cBc|ded cAG|~F2D DED|DGG FGA|\
BAB cBc|dcA ~d2e|fed cAF|AGF G2:|\
B/2d/2|gfg def|~g2 a bag|~f2d dfg|afd cAG|\
gfg def|~g2a bag|fed cAF|AGF G2:|**

